portal/assets/img/component/tab/spacing-defaulttab.svg

<svg width="120" height="45" viewBox="0 0 120 45" fill="none" xmlns="http://www.w3.org/2000/svg">
<path d="M0.568182 12.392V10.3636H10.125V12.392H6.5625V22H4.13068V12.392H0.568182ZM12.9545 22.1648C12.3977 22.1648 11.9015 22.0682 11.4659 21.875C11.0303 21.678 10.6856 21.3883 10.4318 21.0057C10.1818 20.6193 10.0568 20.1383 10.0568 19.5625C10.0568 19.0777 10.1458 18.6705 10.3239 18.3409C10.5019 18.0114 10.7443 17.7462 11.0511 17.5455C11.358 17.3447 11.7064 17.1932 12.0966 17.0909C12.4905 16.9886 12.9034 16.9167 13.3352 16.875C13.8428 16.822 14.2519 16.7727 14.5625 16.7273C14.8731 16.678 15.0985 16.6061 15.2386 16.5114C15.3788 16.4167 15.4489 16.2765 15.4489 16.0909V16.0568C15.4489 15.697 15.3352 15.4186 15.108 15.2216C14.8845 15.0246 14.5663 14.9261 14.1534 14.9261C13.7178 14.9261 13.3712 15.0227 13.1136 15.2159C12.8561 15.4053 12.6856 15.6439 12.6023 15.9318L10.3636 15.75C10.4773 15.2197 10.7008 14.7614 11.0341 14.375C11.3674 13.9848 11.7973 13.6856 12.3239 13.4773C12.8542 13.2652 13.4678 13.1591 14.1648 13.1591C14.6496 13.1591 15.1136 13.2159 15.5568 13.3295C16.0038 13.4432 16.3996 13.6193 16.7443 13.858C17.0928 14.0966 17.3674 14.4034 17.5682 14.7784C17.7689 15.1496 17.8693 15.5947 17.8693 16.1136V22H15.5739V20.7898H15.5057C15.3655 21.0625 15.178 21.303 14.9432 21.5114C14.7083 21.7159 14.4261 21.8769 14.0966 21.9943C13.767 22.108 13.3864 22.1648 12.9545 22.1648ZM13.6477 20.4943C14.0038 20.4943 14.3182 20.4242 14.5909 20.2841C14.8636 20.1402 15.0777 19.947 15.233 19.7045C15.3883 19.4621 15.4659 19.1875 15.4659 18.8807V17.9545C15.3902 18.0038 15.286 18.0492 15.1534 18.0909C15.0246 18.1288 14.8788 18.1648 14.7159 18.1989C14.553 18.2292 14.3902 18.2576 14.2273 18.2841C14.0644 18.3068 13.9167 18.3277 13.7841 18.3466C13.5 18.3883 13.2519 18.4545 13.0398 18.5455C12.8277 18.6364 12.6629 18.7595 12.5455 18.9148C12.428 19.0663 12.3693 19.2557 12.3693 19.483C12.3693 19.8125 12.4886 20.0644 12.7273 20.2386C12.9697 20.4091 13.2765 20.4943 13.6477 20.4943ZM19.7926 22V10.3636H22.2131V14.7386H22.2869C22.393 14.5038 22.5464 14.2652 22.7472 14.0227C22.9517 13.7765 23.2169 13.572 23.5426 13.4091C23.8722 13.2424 24.2813 13.1591 24.7699 13.1591C25.4063 13.1591 25.9934 13.3258 26.5312 13.6591C27.0691 13.9886 27.4991 14.4867 27.821 15.1534C28.143 15.8163 28.304 16.6477 28.304 17.6477C28.304 18.6212 28.1468 19.4432 27.8324 20.1136C27.5218 20.7803 27.0975 21.286 26.5597 21.6307C26.0256 21.9716 25.4271 22.142 24.7642 22.142C24.2945 22.142 23.8949 22.0644 23.5653 21.9091C23.2396 21.7538 22.9725 21.5587 22.7642 21.3239C22.5559 21.0852 22.3968 20.8447 22.2869 20.6023H22.179V22H19.7926ZM22.1619 17.6364C22.1619 18.1553 22.2339 18.608 22.3778 18.9943C22.5218 19.3807 22.7301 19.6818 23.0028 19.8977C23.2756 20.1098 23.607 20.2159 23.9972 20.2159C24.3911 20.2159 24.7244 20.108 24.9972 19.892C25.2699 19.6723 25.4763 19.3693 25.6165 18.983C25.7604 18.5928 25.8324 18.1439 25.8324 17.6364C25.8324 17.1326 25.7623 16.6894 25.6222 16.3068C25.482 15.9242 25.2756 15.625 25.0028 15.4091C24.7301 15.1932 24.3949 15.0852 23.9972 15.0852C23.6032 15.0852 23.2699 15.1894 22.9972 15.3977C22.7282 15.6061 22.5218 15.9015 22.3778 16.2841C22.2339 16.6667 22.1619 17.1174 22.1619 17.6364ZM33.6222 22V13.2727H36.0426V22H33.6222ZM34.8381 12.1477C34.4782 12.1477 34.1695 12.0284 33.9119 11.7898C33.6581 11.5473 33.5312 11.2576 33.5312 10.9205C33.5312 10.5871 33.6581 10.3011 33.9119 10.0625C34.1695 9.82008 34.4782 9.69886 34.8381 9.69886C35.1979 9.69886 35.5047 9.82008 35.7585 10.0625C36.0161 10.3011 36.1449 10.5871 36.1449 10.9205C36.1449 11.2576 36.0161 11.5473 35.7585 11.7898C35.5047 12.0284 35.1979 12.1477 34.8381 12.1477ZM42.6236 13.2727V15.0909H37.3679V13.2727H42.6236ZM38.5611 11.1818H40.9815V19.3182C40.9815 19.5417 41.0156 19.7159 41.0838 19.8409C41.152 19.9621 41.2467 20.0473 41.3679 20.0966C41.4929 20.1458 41.6368 20.1705 41.7997 20.1705C41.9134 20.1705 42.027 20.161 42.1406 20.142C42.2543 20.1193 42.3414 20.1023 42.402 20.0909L42.7827 21.892C42.6615 21.9299 42.491 21.9735 42.2713 22.0227C42.0516 22.0758 41.7846 22.108 41.4702 22.1193C40.8868 22.142 40.3755 22.0644 39.9361 21.8864C39.5005 21.7083 39.1615 21.4318 38.919 21.0568C38.6766 20.6818 38.5573 20.2083 38.5611 19.6364V11.1818ZM48.0838 22.1705C47.1861 22.1705 46.4134 21.9886 45.7656 21.625C45.1217 21.2576 44.6255 20.7386 44.277 20.0682C43.9285 19.3939 43.7543 18.5966 43.7543 17.6761C43.7543 16.7784 43.9285 15.9905 44.277 15.3125C44.6255 14.6345 45.116 14.1061 45.7486 13.7273C46.3849 13.3485 47.1312 13.1591 47.9872 13.1591C48.563 13.1591 49.099 13.2519 49.5952 13.4375C50.0952 13.6193 50.5308 13.8939 50.902 14.2614C51.277 14.6288 51.5687 15.0909 51.777 15.6477C51.9853 16.2008 52.0895 16.8485 52.0895 17.5909V18.2557H44.7202V16.7557H49.8111C49.8111 16.4072 49.7353 16.0985 49.5838 15.8295C49.4323 15.5606 49.2221 15.3504 48.9531 15.1989C48.688 15.0436 48.3793 14.9659 48.027 14.9659C47.6596 14.9659 47.3338 15.0511 47.0497 15.2216C46.7694 15.3883 46.5497 15.6136 46.3906 15.8977C46.2315 16.178 46.1501 16.4905 46.1463 16.8352V18.2614C46.1463 18.6932 46.2259 19.0663 46.3849 19.3807C46.5478 19.6951 46.777 19.9375 47.0724 20.108C47.3679 20.2784 47.7183 20.3636 48.1236 20.3636C48.3925 20.3636 48.6387 20.3258 48.8622 20.25C49.0857 20.1742 49.277 20.0606 49.4361 19.9091C49.5952 19.7576 49.7164 19.572 49.7997 19.3523L52.0384 19.5C51.9247 20.0379 51.6918 20.5076 51.3395 20.9091C50.991 21.3068 50.5402 21.6174 49.9872 21.8409C49.438 22.0606 48.8035 22.1705 48.0838 22.1705ZM53.669 22V13.2727H55.9759V14.8125H56.0781C56.2599 14.3011 56.563 13.8977 56.9872 13.6023C57.4115 13.3068 57.919 13.1591 58.5099 13.1591C59.1084 13.1591 59.6179 13.3087 60.0384 13.608C60.4588 13.9034 60.7391 14.3049 60.8793 14.8125H60.9702C61.1482 14.3125 61.4702 13.9129 61.9361 13.6136C62.4058 13.3106 62.9607 13.1591 63.6009 13.1591C64.4152 13.1591 65.0762 13.4186 65.5838 13.9375C66.0952 14.4527 66.3509 15.1837 66.3509 16.1307V22H63.9361V16.608C63.9361 16.1231 63.8073 15.7595 63.5497 15.517C63.2921 15.2746 62.9702 15.1534 62.5838 15.1534C62.1444 15.1534 61.8016 15.2936 61.5554 15.5739C61.3092 15.8504 61.1861 16.2159 61.1861 16.6705V22H58.8395V16.5568C58.8395 16.1288 58.7164 15.7879 58.4702 15.5341C58.2277 15.2803 57.9077 15.1534 57.5099 15.1534C57.241 15.1534 56.9986 15.2216 56.7827 15.358C56.5705 15.4905 56.402 15.678 56.277 15.9205C56.152 16.1591 56.0895 16.4394 56.0895 16.7614V22H53.669Z" fill="#344054"/>
<rect y="40" width="68" height="2" fill="#0F71BB"/>
<rect y="32" width="68" height="8" fill="#E8178A" fill-opacity="0.24"/>
<path d="M84.5 32V40" stroke="#E8178A"/>
<rect x="89" y="27" width="31" height="18" rx="3" fill="#E8178A"/>
<path d="M98.3026 40.0994C97.7557 40.0994 97.2692 40.0107 96.843 39.8331C96.4193 39.6532 96.0866 39.4081 95.8452 39.098C95.6037 38.7879 95.483 38.4363 95.483 38.0433C95.483 37.7403 95.5516 37.4621 95.6889 37.2088C95.8286 36.9531 96.018 36.7412 96.2571 36.5732C96.4962 36.4027 96.7637 36.2938 97.0597 36.2464V36.1967C96.6714 36.1186 96.3565 35.9304 96.1151 35.6321C95.8736 35.3314 95.7528 34.9822 95.7528 34.5845C95.7528 34.2081 95.8629 33.8731 96.0831 33.5795C96.3033 33.2836 96.6051 33.0516 96.9886 32.8835C97.3745 32.7131 97.8125 32.6278 98.3026 32.6278C98.7926 32.6278 99.2294 32.7131 99.6129 32.8835C99.9988 33.054 100.302 33.2872 100.522 33.5831C100.742 33.8767 100.853 34.2105 100.856 34.5845C100.853 34.9846 100.73 35.3338 100.487 35.6321C100.243 35.9304 99.9302 36.1186 99.549 36.1967V36.2464C99.8402 36.2938 100.104 36.4027 100.341 36.5732C100.58 36.7412 100.769 36.9531 100.909 37.2088C101.051 37.4621 101.123 37.7403 101.126 38.0433C101.123 38.4363 101.001 38.7879 100.76 39.098C100.518 39.4081 100.185 39.6532 99.7585 39.8331C99.3348 40.0107 98.8494 40.0994 98.3026 40.0994ZM98.3026 38.9702C98.5464 38.9702 98.7595 38.9264 98.9418 38.8388C99.1241 38.7488 99.2661 38.6257 99.3679 38.4695C99.4721 38.3108 99.5241 38.1286 99.5241 37.9226C99.5241 37.7119 99.4709 37.526 99.3643 37.3651C99.2578 37.2017 99.1134 37.0739 98.9311 36.9815C98.7488 36.8868 98.5393 36.8395 98.3026 36.8395C98.0682 36.8395 97.8587 36.8868 97.674 36.9815C97.4893 37.0739 97.3438 37.2017 97.2372 37.3651C97.133 37.526 97.081 37.7119 97.081 37.9226C97.081 38.1286 97.1319 38.3108 97.2337 38.4695C97.3355 38.6257 97.4787 38.7488 97.6634 38.8388C97.848 38.9264 98.0611 38.9702 98.3026 38.9702ZM98.3026 35.7209C98.5062 35.7209 98.6873 35.6795 98.8459 35.5966C99.0045 35.5137 99.1288 35.3989 99.2188 35.2521C99.3087 35.1054 99.3537 34.9361 99.3537 34.7443C99.3537 34.5549 99.3087 34.3892 99.2188 34.2472C99.1288 34.1027 99.0057 33.9903 98.8494 33.9098C98.6932 33.8269 98.5109 33.7855 98.3026 33.7855C98.0966 33.7855 97.9143 33.8269 97.7557 33.9098C97.5971 33.9903 97.4728 34.1027 97.3828 34.2472C97.2952 34.3892 97.2514 34.5549 97.2514 34.7443C97.2514 34.9361 97.2964 35.1054 97.3864 35.2521C97.4763 35.3989 97.6006 35.5137 97.7592 35.5966C97.9179 35.6795 98.099 35.7209 98.3026 35.7209ZM102.215 42.0455V34.5455H103.706V35.4616H103.774C103.84 35.3149 103.936 35.1657 104.062 35.0142C104.189 34.8603 104.355 34.7325 104.559 34.6307C104.765 34.5265 105.02 34.4744 105.326 34.4744C105.724 34.4744 106.09 34.5786 106.427 34.7869C106.763 34.9929 107.032 35.3042 107.233 35.7209C107.434 36.1352 107.535 36.6548 107.535 37.2798C107.535 37.8883 107.436 38.402 107.24 38.821C107.046 39.2377 106.781 39.5537 106.444 39.7692C106.111 39.9822 105.737 40.0888 105.322 40.0888C105.029 40.0888 104.779 40.0402 104.573 39.9432C104.369 39.8461 104.202 39.7242 104.072 39.5774C103.942 39.4283 103.843 39.2779 103.774 39.1264H103.728V42.0455H102.215ZM103.696 37.2727C103.696 37.5971 103.741 37.88 103.831 38.1214C103.921 38.3629 104.051 38.5511 104.221 38.6861C104.392 38.8187 104.599 38.8849 104.843 38.8849C105.089 38.8849 105.297 38.8175 105.468 38.6825C105.638 38.5452 105.767 38.3558 105.855 38.1143C105.945 37.8705 105.99 37.59 105.99 37.2727C105.99 36.9579 105.946 36.6809 105.858 36.4418C105.771 36.2027 105.642 36.0156 105.471 35.8807C105.301 35.7457 105.091 35.6783 104.843 35.6783C104.597 35.6783 104.388 35.7434 104.218 35.8736C104.05 36.0038 103.921 36.1884 103.831 36.4276C103.741 36.6667 103.696 36.9484 103.696 37.2727ZM109.612 34.5455L110.613 36.4524L111.64 34.5455H113.192L111.611 37.2727L113.234 40H111.689L110.613 38.1143L109.555 40H107.993L109.612 37.2727L108.05 34.5455H109.612Z" fill="white"/>
<line x1="81" y1="32.5" x2="88" y2="32.5" stroke="#E8178A"/>
<line x1="81" y1="39.5" x2="88" y2="39.5" stroke="#E8178A"/>
</svg>

<svg width="120" height="45" viewBox="0 0 120 45" fill="none" xmlns="http://www.w3.org/2000/svg"><path d="M.568 12.392v-2.028h9.557v2.028H6.562V22H4.131v-9.608H.568Zm12.386 9.773c-.556 0-1.053-.097-1.488-.29a2.397 2.397 0 0 1-1.034-.87c-.25-.386-.375-.867-.375-1.442 0-.485.089-.892.267-1.222.178-.33.42-.595.727-.796.307-.2.655-.352 1.046-.454a7.969 7.969 0 0 1 1.238-.216 31.4 31.4 0 0 0 1.227-.148c.311-.049.537-.12.677-.216a.475.475 0 0 0 .21-.42v-.034c0-.36-.114-.638-.341-.835-.224-.197-.542-.296-.955-.296-.435 0-.782.097-1.04.29-.257.19-.427.428-.51.716l-2.24-.182a3.05 3.05 0 0 1 .671-1.375c.333-.39.763-.69 1.29-.898.53-.212 1.144-.318 1.84-.318.486 0 .95.057 1.393.17.447.114.843.29 1.187.529.349.239.623.545.824.92.2.372.301.817.301 1.336V22h-2.295v-1.21h-.068a2.45 2.45 0 0 1-.563.721 2.605 2.605 0 0 1-.846.483c-.33.114-.71.17-1.143.17Zm.694-1.67c.356 0 .67-.07.943-.21a1.67 1.67 0 0 0 .642-.58c.155-.243.233-.517.233-.824v-.927a1.28 1.28 0 0 1-.313.137 5.692 5.692 0 0 1-.437.108c-.163.03-.326.059-.489.085l-.443.063a2.991 2.991 0 0 0-.744.198 1.19 1.19 0 0 0-.494.37.9.9 0 0 0-.177.568c0 .33.12.581.358.756.243.17.55.255.92.255ZM19.793 22V10.364h2.42v4.375h.074c.106-.235.26-.474.46-.716.205-.246.47-.451.796-.614.33-.167.738-.25 1.227-.25a3.28 3.28 0 0 1 1.761.5c.538.33.968.828 1.29 1.494.322.663.483 1.495.483 2.495 0 .973-.157 1.795-.472 2.466-.31.666-.735 1.172-1.272 1.517a3.267 3.267 0 0 1-1.796.511c-.47 0-.87-.078-1.199-.233a2.48 2.48 0 0 1-.8-.585 2.976 2.976 0 0 1-.478-.722h-.108V22h-2.386Zm2.369-4.364c0 .52.072.972.216 1.358.144.387.352.688.625.904.273.212.604.318.994.318.394 0 .727-.108 1-.324.273-.22.48-.523.62-.909.143-.39.215-.84.215-1.347 0-.503-.07-.947-.21-1.33-.14-.382-.346-.681-.62-.897-.272-.216-.607-.324-1.005-.324-.394 0-.727.104-1 .313-.269.208-.475.504-.62.886-.143.383-.215.833-.215 1.352ZM33.622 22v-8.727h2.42V22h-2.42Zm1.216-9.852c-.36 0-.669-.12-.926-.358a1.16 1.16 0 0 1-.38-.87c0-.333.126-.619.38-.857.258-.243.566-.364.926-.364.36 0 .667.121.92.364.258.238.387.524.387.857 0 .338-.129.627-.387.87-.253.238-.56.358-.92.358Zm7.786 1.125v1.818h-5.256v-1.818h5.256Zm-4.063-2.091h2.42v8.136c0 .224.035.398.103.523a.564.564 0 0 0 .284.256c.125.049.269.073.432.073.113 0 .227-.009.34-.028l.262-.051.38 1.801a6.777 6.777 0 0 1-.51.13 4.09 4.09 0 0 1-.802.097c-.583.023-1.094-.055-1.534-.233a2.142 2.142 0 0 1-1.017-.83c-.242-.374-.362-.848-.358-1.42v-8.454Zm9.523 10.989c-.898 0-1.67-.182-2.318-.546a3.736 3.736 0 0 1-1.489-1.557c-.349-.674-.523-1.471-.523-2.392 0-.898.175-1.685.523-2.363a3.864 3.864 0 0 1 1.472-1.586c.636-.379 1.382-.568 2.238-.568.576 0 1.112.093 1.608.278.5.182.936.457 1.307.824.375.368.667.83.875 1.387.208.553.313 1.2.313 1.943v.665h-7.37v-1.5h5.091c0-.349-.076-.657-.227-.927a1.627 1.627 0 0 0-.63-.63 1.798 1.798 0 0 0-.927-.233c-.367 0-.693.085-.977.256a1.8 1.8 0 0 0-.66.676c-.159.28-.24.593-.244.937v1.426c0 .432.08.805.239 1.12.163.314.392.556.687.727.296.17.646.256 1.052.256.268 0 .515-.038.738-.114a1.55 1.55 0 0 0 .574-.34c.16-.152.28-.338.364-.558l2.238.148a3.057 3.057 0 0 1-.698 1.41c-.349.397-.8.707-1.353.93-.549.22-1.184.33-1.903.33ZM53.669 22v-8.727h2.307v1.54h.102a2.42 2.42 0 0 1 .91-1.21c.423-.296.931-.444 1.522-.444.598 0 1.108.15 1.528.449.42.295.701.697.841 1.204h.091c.178-.5.5-.9.966-1.198.47-.303 1.025-.455 1.665-.455.814 0 1.475.26 1.983.778.511.516.767 1.247.767 2.194V22h-2.415v-5.392c0-.485-.129-.849-.386-1.091a1.358 1.358 0 0 0-.966-.364c-.44 0-.782.14-1.029.42-.246.277-.369.643-.369 1.098V22H58.84v-5.443c0-.428-.124-.77-.37-1.023-.242-.254-.562-.38-.96-.38-.269 0-.511.068-.727.204-.212.133-.381.32-.506.563a1.788 1.788 0 0 0-.188.84V22h-2.42Z" fill="#344054"/><path fill="#0F71BB" d="M0 40h68v2H0z"/><path fill="#E8178A" fill-opacity=".24" d="M0 32h68v8H0z"/><path d="M84.5 32v8" stroke="#E8178A"/><rect x="89" y="27" width="31" height="18" rx="3" fill="#E8178A"/><path d="M98.303 40.1c-.547 0-1.034-.09-1.46-.267-.424-.18-.756-.425-.998-.735a1.671 1.671 0 0 1-.362-1.055c0-.303.069-.58.206-.834.14-.256.329-.468.568-.636.24-.17.507-.28.803-.327v-.05a1.576 1.576 0 0 1-.945-.564c-.241-.3-.362-.65-.362-1.047 0-.377.11-.712.33-1.005a2.2 2.2 0 0 1 .906-.697c.385-.17.823-.255 1.314-.255.49 0 .926.085 1.31.255.386.171.689.404.909.7.22.294.331.628.334 1.002-.003.4-.126.749-.369 1.047a1.589 1.589 0 0 1-.938.565v.05c.291.047.555.156.792.326.239.168.428.38.568.636a1.713 1.713 0 0 1-.149 1.889c-.242.31-.575.555-1.002.735-.423.178-.909.266-1.455.266Zm0-1.13c.243 0 .457-.044.639-.131a1.05 1.05 0 0 0 .426-.37.973.973 0 0 0 .156-.546.986.986 0 0 0-.16-.558 1.098 1.098 0 0 0-.433-.384 1.344 1.344 0 0 0-.628-.142c-.235 0-.444.048-.629.142-.185.093-.33.22-.437.384a1.006 1.006 0 0 0-.156.558.976.976 0 0 0 .583.916c.184.087.397.131.639.131Zm0-3.25c.203 0 .384-.04.543-.123a.936.936 0 0 0 .373-.345.952.952 0 0 0 .135-.508.91.91 0 0 0-.505-.834 1.15 1.15 0 0 0-.546-.124c-.206 0-.389.04-.547.124a.92.92 0 0 0-.373.337.927.927 0 0 0-.132.497c0 .192.045.361.135.508.09.147.215.262.373.345.159.082.34.124.544.124Zm3.912 6.325v-7.5h1.491v.917h.068c.066-.147.162-.296.288-.448a1.49 1.49 0 0 1 .497-.383c.206-.105.461-.157.767-.157.398 0 .764.105 1.101.313.336.206.605.517.806.934.201.414.302.934.302 1.559 0 .608-.099 1.122-.295 1.541-.194.417-.459.733-.796.948-.333.213-.707.32-1.122.32a1.75 1.75 0 0 1-.749-.146 1.545 1.545 0 0 1-.501-.366c-.13-.149-.229-.3-.298-.45h-.046v2.918h-1.513Zm1.481-4.772c0 .324.045.607.135.848.09.242.22.43.39.565a.984.984 0 0 0 .622.199.977.977 0 0 0 .625-.203c.17-.137.299-.326.387-.568.09-.243.135-.524.135-.841a2.4 2.4 0 0 0-.132-.831 1.229 1.229 0 0 0-.387-.561.98.98 0 0 0-.628-.203.999.999 0 0 0-.625.196 1.22 1.22 0 0 0-.387.554c-.09.239-.135.52-.135.845Zm5.916-2.728 1.001 1.907 1.027-1.907h1.552l-1.581 2.728L113.234 40h-1.545l-1.076-1.886L109.555 40h-1.562l1.619-2.727-1.562-2.728h1.562Z" fill="#fff"/><path stroke="#E8178A" d="M81 32.5h7m-7 7h7"/></svg>
